X: 2
T: Helliar Holm
M: 2/4
L: 1/8
R: polka
K: D Major
|: F/G/ | 
Ad ce | da g/f/e/d/ | cb a/g/f/e/ | db aF/G/ |
A/A/d c/c/e | d>a g/f/e/d/ | cB/c/ ac | d2- d :|
a/g/ |
fd Aa/g/ | f/e/f/d/ AF/G/ | Ad fd | c2- cg/f/ |
ge cg/f/ | g/a/g/e cc/B/ | A>c eb | a2- aa/g/ |
f/f/d Aa/g/ | fd A>G | FA d>c | B2- BB/c/ |
d/c/d/a/ f/e/d/c/ | B/d/g/d/ b^a/b/ | a/a/d ce | d2- d ||
